src/assets/filled/QuoteDown.svg

<svg width="24" height="24" viewBox="0 0 24 24"  xmlns="http://www.w3.org/2000/svg">
<path d="M15.9099 12.3699H20.5999C20.5199 17.0399 19.5999 17.8099 16.7299 19.5099C16.3999 19.7099 16.2899 20.1299 16.4899 20.4699C16.6899 20.7999 17.1099 20.9099 17.4499 20.7099C20.8299 18.7099 22.0099 17.4899 22.0099 11.6699V6.27994C22.0099 4.56994 20.6199 3.18994 18.9199 3.18994H15.9199C14.1599 3.18994 12.8299 4.51994 12.8299 6.27994V9.27994C12.8199 11.0399 14.1499 12.3699 15.9099 12.3699Z" />
<path d="M5.09 12.3699H9.78C9.7 17.0399 8.78 17.8099 5.91 19.5099C5.58 19.7099 5.47 20.1299 5.67 20.4699C5.87 20.7999 6.29 20.9099 6.63 20.7099C10.01 18.7099 11.19 17.4899 11.19 11.6699V6.27994C11.19 4.56994 9.8 3.18994 8.1 3.18994H5.1C3.33 3.18994 2 4.51994 2 6.27994V9.27994C2 11.0399 3.33 12.3699 5.09 12.3699Z" />
</svg>

<?xml version="1.0" encoding="UTF-8"?>
<svg width="24" height="24" viewBox="0 0 24 24" xmlns="http://www.w3.org/2000/svg">
 <path d="m15.91 12.37h4.69c-0.08 4.67-1 5.44-3.87 7.14-0.33 0.2-0.44 0.62-0.24 0.96 0.2 0.33 0.62 0.44 0.96 0.24 3.38-2 4.56-3.22 4.56-9.04v-5.39c0-1.71-1.39-3.09-3.09-3.09h-3c-1.76 0-3.09 1.33-3.09 3.09v3c-0.01 1.76 1.32 3.09 3.08 3.09z"/>
 <path d="m5.09 12.37h4.69c-0.08 4.67-1 5.44-3.87 7.14-0.33 0.2-0.44 0.62-0.24 0.96 0.2 0.33 0.62 0.44 0.96 0.24 3.38-2 4.56-3.22 4.56-9.04v-5.39c0-1.71-1.39-3.09-3.09-3.09h-3c-1.77 0-3.1 1.33-3.1 3.09v3c0 1.76 1.33 3.09 3.09 3.09z"/>
</svg>
